X:33
T:Trip to Galloway. VWMLa.033
%%VWML:Anon2-3049-p20-0
F:http://www.vwml.org/record/Anon2/3049/p20
S:Anon. MS, late 18thC, Vaughan Williams Mem. Library
O:England;Yorkshire
Z:vmp/efdss.Simon Wilson. Reviewed PJH 2008.
M:C|
L:1/8
Q:2/4=90
K:A
f|eAeA GABd|cAeA fAaA|\
eAcA GABd|cAeA A/A/AA2:|
|:CEAc BEdE|cEeE BGFE|\
CEAc BEdE|caec A/A/AA2:|
T:I'll Never the Laddie. VWMLa.034
T:Jack, I'll Never  Leave Thee,aka. VWMLa.034
R:Reel
S:Anon. MS, late 18thC, Vaughan Williams Mem. Library
O:England;Yorkshire
Z:vmp/efdss.Simon Wilson. Reviewed PJH 2008.
M:C|
L:1/8
Q:2/4=90
K:D
d2(f/g/a) gfed|d2(f/g/a) g2B2|\
d2(f/g/a) gfed|A2d>e c2A2:|
|:(d/=c/B/A/) GB dBgB|(d/c/B/A/) GB g2B2|\
(d/c/B/A/) GB dBgB|A2d>e c2A2:|
